X: 57
T: ROTHERMURCUS RANT
%R: strathspey
B: Jean White "100 Popular Hornpipes, Reels, Jigs and Country Dances", Boston 1880 p.25
F: http://www.loc.gov/resource/sm1880.09124.0#seq-1
Z: 2014 John Chambers <jc:trillian.mit.edu>
M: C|
L: 1/16
K: C
% - - - - - - - - - - - - - - - - - - - - - - - - - - - - -
G2 |\
E3DE3C EG3 G4 | c3GA3G c3GA3c |\
E3DE3C DG3G3c | A3cG3c [EC][D3B,3][D2B,2] :|
f2 |\
e3gg3a g3ag3d | e3aa3b a3ba3g |\
e3gd3e c3de3c | A3ag3f ed3d3g |
f3ed3c d3ea4 | g3ee3d c4 A2eg |\
a3eg3d {f}e4d3c | A3cG3c [EC][D3B,3][D2B,2] |]
% - - - - - - - - - - - - - - - - - - - - - - - - - - - - -

%%sep 1 1 500
%%sep 1 1 500
